svg/mission-control.svg

<?xml version="1.0" encoding="UTF-8"?>
<svg xmlns="http://www.w3.org/2000/svg" xmlns:xlink="http://www.w3.org/1999/xlink" width="30.702999" height="32" viewBox="0 0 30.702999 32">
<defs>
<linearGradient id="linear-pattern-0" gradientUnits="userSpaceOnUse" x1="250.410004" y1="-315.390015" x2="346.76001" y2="-315.390015" gradientTransform="matrix(0.199751, -0.11482, 0.11482, 0.199751, -9.530623, 124.285422)">
<stop offset="0" stop-color="rgb(16.078431%, 50.196078%, 95.294118%)" stop-opacity="1"/>
<stop offset="1" stop-color="rgb(14.901961%, 32.156863%, 85.098039%)" stop-opacity="1"/>
</linearGradient>
<linearGradient id="linear-pattern-1" gradientUnits="userSpaceOnUse" x1="268.190002" y1="-355.209991" x2="332.809998" y2="-355.209991" gradientTransform="matrix(0.197861, -0.113734, 0.113734, 0.197861, 23.183145, 156.403042)">
<stop offset="0" stop-color="rgb(16.078431%, 50.196078%, 95.294118%)" stop-opacity="1"/>
<stop offset="1" stop-color="rgb(14.901961%, 32.156863%, 85.098039%)" stop-opacity="1"/>
</linearGradient>
<linearGradient id="linear-pattern-2" gradientUnits="userSpaceOnUse" x1="286.929993" y1="-392.730011" x2="320.279999" y2="-392.730011" gradientTransform="matrix(0.197861, -0.113734, 0.113734, 0.197861, 23.183145, 156.403042)">
<stop offset="0" stop-color="rgb(16.078431%, 50.196078%, 95.294118%)" stop-opacity="1"/>
<stop offset="1" stop-color="rgb(14.901961%, 32.156863%, 85.098039%)" stop-opacity="1"/>
</linearGradient>
<linearGradient id="linear-pattern-3" gradientUnits="userSpaceOnUse" x1="8366.580078" y1="2144.550049" x2="8266.30957" y2="2144.550049" gradientTransform="matrix(-0.199751, 0.11482, -0.11482, -0.199751, 1926.358985, -520.889032)">
<stop offset="0" stop-color="rgb(16.078431%, 50.196078%, 95.294118%)" stop-opacity="1"/>
<stop offset="1" stop-color="rgb(14.901961%, 32.156863%, 85.098039%)" stop-opacity="1"/>
</linearGradient>
<linearGradient id="linear-pattern-4" gradientUnits="userSpaceOnUse" x1="8352.459961" y1="2103.860107" x2="8283.620117" y2="2103.860107" gradientTransform="matrix(-0.199751, 0.11482, -0.11482, -0.199751, 1926.358985, -520.889032)">
<stop offset="0" stop-color="rgb(16.078431%, 50.196078%, 95.294118%)" stop-opacity="1"/>
<stop offset="1" stop-color="rgb(14.901961%, 32.156863%, 85.098039%)" stop-opacity="1"/>
</linearGradient>
<linearGradient id="linear-pattern-5" gradientUnits="userSpaceOnUse" x1="8338.519531" y1="2064.090088" x2="8300.280273" y2="2064.090088" gradientTransform="matrix(-0.199751, 0.11482, -0.11482, -0.199751, 1926.358985, -520.889032)">
<stop offset="0" stop-color="rgb(16.078431%, 50.196078%, 95.294118%)" stop-opacity="1"/>
<stop offset="1" stop-color="rgb(14.901961%, 32.156863%, 85.098039%)" stop-opacity="1"/>
</linearGradient>
</defs>
<path fill-rule="nonzero" fill="url(#linear-pattern-0)" d="M 21.894531 23.160156 L 24.15625 25.367188 C 24.289062 25.507812 24.289062 25.726562 24.15625 25.863281 C 24.113281 25.902344 24.066406 25.929688 24.011719 25.949219 L 3.589844 32 L 0.75 29.222656 Z M 21.894531 23.160156 "/>
<path fill-rule="nonzero" fill="url(#linear-pattern-1)" d="M 14.113281 16.101562 L 16.382812 18.347656 C 16.449219 18.414062 16.484375 18.5 16.484375 18.59375 C 16.484375 18.683594 16.449219 18.773438 16.382812 18.835938 C 16.339844 18.878906 16.285156 18.910156 16.226562 18.925781 L 2.863281 22.632812 L 0.0703125 19.867188 Z M 14.113281 16.101562 "/>
<path fill-rule="nonzero" fill="url(#linear-pattern-2)" d="M 6.984375 9.320312 L 9.042969 11.394531 C 9.109375 11.460938 9.144531 11.546875 9.144531 11.640625 C 9.144531 11.734375 9.109375 11.820312 9.042969 11.886719 C 8.996094 11.929688 8.941406 11.960938 8.878906 11.980469 L 2.535156 13.628906 L 0 11.066406 Z M 6.984375 9.320312 "/>
<path fill-rule="nonzero" fill="url(#linear-pattern-3)" d="M 7.714844 10.191406 L 3.386719 5.863281 C 3.296875 5.773438 3.265625 5.644531 3.300781 5.523438 C 3.335938 5.402344 3.433594 5.308594 3.554688 5.28125 L 24.714844 0 L 29.320312 4.609375 Z M 7.714844 10.191406 "/>
<path fill-rule="nonzero" fill="url(#linear-pattern-4)" d="M 15.371094 17.449219 L 11.660156 13.691406 C 11.527344 13.550781 11.527344 13.332031 11.660156 13.195312 C 11.707031 13.152344 11.761719 13.121094 11.820312 13.105469 L 25.777344 9.398438 L 29.820312 13.4375 Z M 15.371094 17.449219 "/>
<path fill-rule="nonzero" fill="url(#linear-pattern-5)" d="M 23.4375 24.769531 L 19.445312 20.742188 C 19.378906 20.679688 19.339844 20.589844 19.339844 20.496094 C 19.339844 20.402344 19.378906 20.3125 19.445312 20.25 C 19.484375 20.207031 19.535156 20.179688 19.59375 20.160156 L 26.289062 18.214844 L 30.703125 22.617188 Z M 23.4375 24.769531 "/>
</svg>

<svg role="img" viewBox="0 0 30.703 32" xmlns="http://www.w3.org/2000/svg"><defs><linearGradient gradientTransform="rotate(-29.891 228.04 79.995)scale(.2304)" gradientUnits="userSpaceOnUse" id="mission-control_svg__a" x1="250.41" x2="346.76" y1="-315.39" y2="-315.39"><stop offset="0" stop-color="rgb(16.078432%, 50.196081%, 95.294118%)"/><stop offset="1" stop-color="rgb(14.901961%, 32.156864%, 85.09804%)"/></linearGradient><linearGradient gradientTransform="rotate(-29.891 304.559 34.776)scale(.22822)" gradientUnits="userSpaceOnUse" id="mission-control_svg__b" x1="268.19" x2="332.81" y1="-355.21" y2="-355.21"><stop offset="0" stop-color="rgb(16.078432%, 50.196081%, 95.294118%)"/><stop offset="1" stop-color="rgb(14.901961%, 32.156864%, 85.09804%)"/></linearGradient><linearGradient gradientTransform="rotate(-29.891 304.559 34.776)scale(.22822)" gradientUnits="userSpaceOnUse" id="mission-control_svg__c" x1="286.93" x2="320.28" y1="-392.73" y2="-392.73"><stop offset="0" stop-color="rgb(16.078432%, 50.196081%, 95.294118%)"/><stop offset="1" stop-color="rgb(14.901961%, 32.156864%, 85.09804%)"/></linearGradient><linearGradient gradientTransform="rotate(150.109 1032.7 -3.343)scale(.2304)" gradientUnits="userSpaceOnUse" id="mission-control_svg__d" x1="8366.58" x2="8266.31" y1="2144.55" y2="2144.55"><stop offset="0" stop-color="rgb(16.078432%, 50.196081%, 95.294118%)"/><stop offset="1" stop-color="rgb(14.901961%, 32.156864%, 85.09804%)"/></linearGradient><linearGradient gradientTransform="rotate(150.109 1032.7 -3.343)scale(.2304)" gradientUnits="userSpaceOnUse" id="mission-control_svg__e" x1="8352.46" x2="8283.62" y1="2103.86" y2="2103.86"><stop offset="0" stop-color="rgb(16.078432%, 50.196081%, 95.294118%)"/><stop offset="1" stop-color="rgb(14.901961%, 32.156864%, 85.09804%)"/></linearGradient><linearGradient gradientTransform="rotate(150.109 1032.7 -3.343)scale(.2304)" gradientUnits="userSpaceOnUse" id="mission-control_svg__f" x1="8338.52" x2="8300.28" y1="2064.09" y2="2064.09"><stop offset="0" stop-color="rgb(16.078432%, 50.196081%, 95.294118%)"/><stop offset="1" stop-color="rgb(14.901961%, 32.156864%, 85.09804%)"/></linearGradient></defs><path d="m21.895 23.16 2.261 2.207c.133.14.133.36 0 .496a.4.4 0 0 1-.144.086L3.59 32 .75 29.223Zm0 0" fill="url(#mission-control_svg__a)"/><path d="m14.113 16.102 2.27 2.246a.34.34 0 0 1 .101.246c0 .09-.035.18-.101.242a.35.35 0 0 1-.156.09L2.863 22.633.07 19.867Zm0 0" fill="url(#mission-control_svg__b)"/><path d="m6.984 9.32 2.059 2.075a.34.34 0 0 1 .102.246c0 .093-.036.18-.102.246a.4.4 0 0 1-.164.093l-6.344 1.65L0 11.066Zm0 0" fill="url(#mission-control_svg__c)"/><path d="M7.715 10.191 3.387 5.863a.35.35 0 0 1-.086-.34.35.35 0 0 1 .254-.242L24.715 0l4.605 4.61Zm0 0" fill="url(#mission-control_svg__d)"/><path d="m15.371 17.45-3.71-3.759a.36.36 0 0 1 0-.496.4.4 0 0 1 .16-.09l13.956-3.707 4.043 4.04Zm0 0" fill="url(#mission-control_svg__e)"/><path d="m23.438 24.77-3.993-4.028a.34.34 0 0 1 0-.492c.04-.043.09-.07.149-.09l6.695-1.945 4.414 4.402Zm0 0" fill="url(#mission-control_svg__f)"/></svg>
